svgs/thin/xmark-to-slot.svg

<svg xmlns="http://www.w3.org/2000/svg" viewBox="0 0 576 512"><!--! Font Awesome Pro 6.6.0 by @fontawesome - https://fontawesome.com License - https://fontawesome.com/license (Commercial License) Copyright 2024 Fonticons, Inc. --><path d="M144 48c-17.7 0-32 14.3-32 32l0 328 352 0 0-328c0-17.7-14.3-32-32-32L144 48zM480 80l0 328 32 0c4.4 0 8 3.6 8 8s-3.6 8-8 8l-32 0-16 0-352 0-16 0-32 0c-4.4 0-8-3.6-8-8s3.6-8 8-8l32 0L96 80c0-26.5 21.5-48 48-48l288 0c26.5 0 48 21.5 48 48zM48 352l16 0 0 16-16 0c-17.7 0-32 14.3-32 32l0 32c0 17.7 14.3 32 32 32l480 0c17.7 0 32-14.3 32-32l0-32c0-17.7-14.3-32-32-32l-16 0 0-16 16 0c26.5 0 48 21.5 48 48l0 32c0 26.5-21.5 48-48 48L48 480c-26.5 0-48-21.5-48-48l0-32c0-26.5 21.5-48 48-48zM210.3 146.3c3.1-3.1 8.2-3.1 11.3 0L288 212.7l66.3-66.3c3.1-3.1 8.2-3.1 11.3 0s3.1 8.2 0 11.3L299.3 224l66.3 66.3c3.1 3.1 3.1 8.2 0 11.3s-8.2 3.1-11.3 0L288 235.3l-66.3 66.3c-3.1 3.1-8.2 3.1-11.3 0s-3.1-8.2 0-11.3L276.7 224l-66.3-66.3c-3.1-3.1-3.1-8.2 0-11.3z"/></svg>

<svg xmlns="http://www.w3.org/2000/svg" viewBox="0 0 576 512"><!--! Font Awesome Pro 6.4.0 by @fontawesome - https://fontawesome.com License - https://fontawesome.com/license (Commercial License) Copyright 2023 Fonticons, Inc. --><path d="M144 48c-17.7 0-32 14.3-32 32V408H464V80c0-17.7-14.3-32-32-32H144zM480 80V408h32c4.4 0 8 3.6 8 8s-3.6 8-8 8H480 464 112 96 64c-4.4 0-8-3.6-8-8s3.6-8 8-8H96V80c0-26.5 21.5-48 48-48H432c26.5 0 48 21.5 48 48zM48 352H64v16H48c-17.7 0-32 14.3-32 32v32c0 17.7 14.3 32 32 32H528c17.7 0 32-14.3 32-32V400c0-17.7-14.3-32-32-32H512V352h16c26.5 0 48 21.5 48 48v32c0 26.5-21.5 48-48 48H48c-26.5 0-48-21.5-48-48V400c0-26.5 21.5-48 48-48zM210.3 146.3c3.1-3.1 8.2-3.1 11.3 0L288 212.7l66.3-66.3c3.1-3.1 8.2-3.1 11.3 0s3.1 8.2 0 11.3L299.3 224l66.3 66.3c3.1 3.1 3.1 8.2 0 11.3s-8.2 3.1-11.3 0L288 235.3l-66.3 66.3c-3.1 3.1-8.2 3.1-11.3 0s-3.1-8.2 0-11.3L276.7 224l-66.3-66.3c-3.1-3.1-3.1-8.2 0-11.3z"/></svg>
